assets/images/clients/OBI.svg

<svg width="300" height="120" viewBox="0 0 300 120" fill="none" xmlns="http://www.w3.org/2000/svg">
<g clip-path="url(#clip0_3300_14624)">
<path fill-rule="evenodd" clip-rule="evenodd" d="M178.785 56.3604L179.334 66.7523L174.523 69.0909L174.646 71.4296H195.836L195.719 69.2206L190.095 66.7523L189.54 56.2293L194.766 53.632L194.615 50.7734H172.772L172.909 53.3718L178.785 56.3604ZM155.845 56.0813H152.639L152.834 59.9125L156.044 59.9135C157.744 59.9781 158.502 58.517 158.071 57.5749C158.071 57.5749 157.909 56.1458 155.845 56.0813ZM156.238 63.5195H153.033L153.229 67.1193H156.599C157.875 67.1518 158.791 66.2465 158.513 65.0966C158.513 65.0966 158.432 63.5186 156.238 63.5195ZM165.418 71.4646C165.418 71.4646 169.506 71.8869 170.297 66.8989C170.297 66.8989 170.623 63.4598 166.991 61.4425C170.95 60.3416 170.231 55.7303 170.231 55.7303C169.035 50.4904 163.462 50.7899 163.462 50.7899H136.486L136.65 53.3888L141.679 56.3716L142.158 66.9057L137.444 69.1094L137.609 71.4476L165.418 71.4646ZM120.927 68.6206H121.555C122.999 68.6206 124.109 67.4571 124.034 66.0222L123.538 56.6176C123.462 55.1833 122.229 54.0198 120.784 54.0198H120.156C118.711 54.0198 117.602 55.1828 117.677 56.6176L118.173 66.0222C118.249 67.4571 119.482 68.6206 120.927 68.6206ZM115.614 71.4481H127.223C132.28 71.4481 136.165 67.3765 135.9 62.3546L135.77 59.8863C135.505 54.8644 131.19 50.7929 126.134 50.7929H114.525C109.468 50.7929 105.584 54.8649 105.849 59.8863L105.978 62.3546C106.244 67.3765 110.558 71.4481 115.614 71.4481Z" fill="#949494" stroke="#949494" stroke-width="0.998191" stroke-miterlimit="2.613"/>
<path d="M191.336 58.8728C191.336 59.3702 191.538 59.8212 191.863 60.1459C192.188 60.4715 192.639 60.6733 193.136 60.6733C193.632 60.6733 194.083 60.4715 194.409 60.1459C194.749 59.8041 194.938 59.3474 194.936 58.8728C194.937 58.3985 194.748 57.9423 194.409 57.6006C194.244 57.4343 194.046 57.3019 193.827 57.2113C193.609 57.1207 193.373 57.0737 193.136 57.0732C192.898 57.0739 192.663 57.1209 192.444 57.2115C192.225 57.3021 192.028 57.4345 191.863 57.6006C191.524 57.9418 191.334 58.3987 191.336 58.8728ZM193.137 58.6595H192.737V57.9769H192.404V59.7843L193.332 59.7852C193.599 59.7779 193.793 59.6397 193.886 59.4651C193.927 59.3887 193.949 59.3057 193.95 59.2242C193.951 59.1395 193.93 59.0543 193.886 58.976C193.822 58.8627 193.709 58.7655 193.543 58.7097L194.016 57.9452H193.58L193.137 58.6595ZM192.737 58.9935C192.936 58.9935 193.106 59.0059 193.329 59.0059H193.358L193.359 59.0041C193.485 59.0275 193.561 59.0778 193.595 59.1381C193.609 59.1631 193.617 59.1914 193.616 59.2201C193.615 59.2507 193.607 59.2808 193.593 59.308C193.551 59.3864 193.457 59.4476 193.324 59.4513H192.737V58.9935ZM192.11 59.8994C191.836 59.6237 191.683 59.2555 191.685 58.8728C191.685 58.4725 191.848 58.11 192.11 57.847C192.372 57.5854 192.734 57.4224 193.136 57.4224C193.537 57.4224 193.899 57.5854 194.161 57.847C194.424 58.1096 194.586 58.4721 194.586 58.8728C194.586 59.274 194.424 59.6365 194.161 59.8994C193.899 60.1625 193.537 60.3241 193.136 60.3241C192.944 60.3237 192.754 60.2859 192.578 60.2129C192.402 60.14 192.242 60.0334 192.11 59.8994Z" fill="#949494"/>
</g>
<defs>
<clipPath id="clip0_3300_14624">
<rect width="92" height="22" fill="white" transform="translate(105 50)"/>
</clipPath>
</defs>
</svg>

<svg width="300" height="120" viewBox="0 0 300 120" fill="none" xmlns="http://www.w3.org/2000/svg"><g clip-path="url(#a)" fill="#949494"><path fill-rule="evenodd" clip-rule="evenodd" d="m178.785 56.36.549 10.392-4.811 2.339.123 2.339h21.19l-.117-2.21-5.624-2.468-.555-10.523 5.226-2.597-.151-2.859h-21.843l.137 2.599 5.876 2.988Zm-22.94-.279h-3.206l.195 3.831 3.21.002c1.7.064 2.458-1.397 2.027-2.34 0 0-.162-1.428-2.226-1.493Zm.393 7.438h-3.205l.196 3.6h3.37c1.276.033 2.192-.873 1.914-2.022 0 0-.081-1.578-2.275-1.577Zm9.18 7.946s4.088.422 4.879-4.566c0 0 .326-3.44-3.306-5.456 3.959-1.101 3.24-5.713 3.24-5.713-1.196-5.24-6.769-4.94-6.769-4.94h-26.976l.164 2.599 5.029 2.983.479 10.534-4.714 2.203.165 2.339 27.809.017Zm-44.491-2.844h.628c1.444 0 2.554-1.164 2.479-2.599l-.496-9.404c-.076-1.435-1.309-2.598-2.754-2.598h-.628c-1.445 0-2.554 1.163-2.479 2.598l.496 9.404c.076 1.435 1.309 2.599 2.754 2.599Zm-5.313 2.827h11.609c5.057 0 8.942-4.072 8.677-9.093l-.13-2.469c-.265-5.022-4.58-9.093-9.636-9.093h-11.609c-5.057 0-8.941 4.072-8.676 9.093l.129 2.469c.266 5.021 4.58 9.093 9.636 9.093Z" stroke="#949494" stroke-width=".998" stroke-miterlimit="2.613"/><path d="M191.336 58.873c0 .497.202.948.527 1.273a1.798 1.798 0 0 0 3.073-1.273 1.8 1.8 0 0 0-3.6 0Zm1.801-.213h-.4v-.683h-.333v1.807l.928.001a.629.629 0 0 0 .554-.32.493.493 0 0 0 0-.49.6.6 0 0 0-.343-.265l.473-.765h-.436l-.443.715Zm-.4.334c.199 0 .369.012.592.012h.029l.001-.002c.126.024.202.074.236.134a.157.157 0 0 1 .021.082.207.207 0 0 1-.023.088c-.042.078-.136.14-.269.143h-.587v-.458Zm-.627.905a1.45 1.45 0 1 1 2.051 0 1.44 1.44 0 0 1-1.025.425c-.192 0-.382-.038-.558-.111a1.42 1.42 0 0 1-.468-.314Z"/></g><defs><clipPath id="a"><path fill="#fff" transform="translate(105 50)" d="M0 0h92v22H0z"/></clipPath></defs></svg>
